X:89
T:Captain Campbell
R:Strathspey
B:The Athole Collection
M:C
L:1/8
K:A Minor
A|E<A A>B c>A B<G|E<G G>A Bd c/B/A/G/|E<A A>B c>Bc>e|
dB A2A:|B|A<a a>g e>d c<e|d>eg>e d/=c/B/A/ GB|1
A>a a<g e>d c<e|dB A2A:|2 c<A d>B e>d =c<e|dB A2A||
